Sweet-Rainbow/icons/vmware.svg

<?xml version="1.0" encoding="UTF-8" standalone="no"?>
<!-- Generator: Gravit.io -->

<svg
   xmlns:dc="http://purl.org/dc/elements/1.1/"
   xmlns:cc="http://creativecommons.org/ns#"
   xmlns:rdf="http://www.w3.org/1999/02/22-rdf-syntax-ns#"
   xmlns:svg="http://www.w3.org/2000/svg"
   xmlns="http://www.w3.org/2000/svg"
   xmlns:sodipodi="http://sodipodi.sourceforge.net/DTD/sodipodi-0.dtd"
   xmlns:inkscape="http://www.inkscape.org/namespaces/inkscape"
   style="isolation:isolate"
   viewBox="0 0 36 36"
   width="48"
   height="48"
   version="1.1"
   id="svg9"
   sodipodi:docname="vmware.svg"
   inkscape:version="0.92.4 (5da689c313, 2019-01-14)">
  <metadata
     id="metadata15">
    <rdf:RDF>
      <cc:Work
         rdf:about="">
        <dc:format>image/svg+xml</dc:format>
        <dc:type
           rdf:resource="http://purl.org/dc/dcmitype/StillImage" />
        <dc:title></dc:title>
      </cc:Work>
    </rdf:RDF>
  </metadata>
  <defs
     id="defs13" />
  <sodipodi:namedview
     pagecolor="#ffffff"
     bordercolor="#666666"
     borderopacity="1"
     objecttolerance="10"
     gridtolerance="10"
     guidetolerance="10"
     inkscape:pageopacity="0"
     inkscape:pageshadow="2"
     inkscape:window-width="640"
     inkscape:window-height="480"
     id="namedview11"
     showgrid="false"
     inkscape:zoom="29.365243"
     inkscape:cx="25.325443"
     inkscape:cy="32"
     inkscape:current-layer="svg9"
     units="px" />
  <linearGradient
     id="_lgradient_4"
     x1="0"
     y1="0.5"
     x2="0.90748805"
     y2="0.92007786"
     gradientTransform="matrix(44,0,0,44,2,2)"
     gradientUnits="userSpaceOnUse">
    <stop
       offset="0%"
       stop-opacity="1"
       style="stop-color:rgb(247,241,7)"
       id="stop2" />
    <stop
       offset="83.88839793817618%"
       stop-opacity="1"
       style="stop-color:rgb(255,187,36)"
       id="stop4" />
  </linearGradient>
  <g
     id="g826"
     transform="matrix(0.81818182,0,0,0.81818182,-1.6363637,-1.6363637)">
    <path
       id="path7"
       d="m 6,28 v 0 c 0,1.104 -0.896,2 -2,2 v 0 C 2.896,30 2,29.104 2,28 V 28 7 C 2,4.24 4.24,2 7,2 h 34 c 2.76,0 5,2.24 5,5 v 5 0 c 0,1.104 -0.896,2 -2,2 v 0 c -1.104,0 -2,-0.896 -2,-2 V 12 9 C 42,7.344 40.656,6 39,6 H 9 C 7.344,6 6,7.344 6,9 Z m 36,-8 v 0 c 0,-1.104 0.896,-2 2,-2 v 0 c 1.104,0 2,0.896 2,2 v 0 22 c 0,2.208 -1.792,4 -4,4 H 6 C 3.792,46 2,44.208 2,42 v -6 0 c 0,-1.104 0.896,-2 2,-2 v 0 c 1.104,0 2,0.896 2,2 v 0 3 c 0,1.656 1.344,3 3,3 h 30 c 1.656,0 3,-1.344 3,-3 z M 12,10 c -1.108,0 -2,0.892 -2,2 v 9 c 0,1.108 0.892,2 2,2 1.108,0 2,-0.892 2,-2 v -4.187 l 3,3 V 23 h 4 v -1 c 0,-0.554 0.446,-1 1,-1 h 1 v -4 h -3.187 l -3,-3 H 21 c 1.108,0 2,-0.892 2,-2 0,-1.108 -0.892,-2 -2,-2 z m 15,0 c -1.108,0 -2,0.892 -2,2 0,1.108 0.892,2 2,2 h 4.188 l -3,3 H 25 v 4 h 1 c 0.554,0 1,0.446 1,1 v 1 h 4 v -3.187 l 3,-3 V 21 c 0,1.108 0.892,2 2,2 1.108,0 2,-0.892 2,-2 v -9 c 0,-1.108 -0.892,-2 -2,-2 z M 17,25 v 4 c 0,1.108 0.892,2 2,2 h 4 v -4 h -1 c -0.554,0 -1,-0.446 -1,-1 v -1 z m 10,0 v 1 c 0,0.554 -0.446,1 -1,1 h -1 v 4 h 3.188 l 3,3 H 27 c -1.108,0 -2,0.892 -2,2 0,1.108 0.892,2 2,2 h 9 c 1.107,0 2,-0.892 2,-2 v -9 c 0,-1.108 -0.893,-2 -2,-2 -1.109,0 -2,0.892 -2,2 v 4.188 l -3,-3 V 25 Z"
       inkscape:connector-curvature="0"
       style="fill:url(#_lgradient_4);fill-rule:evenodd" />
  </g>
</svg>

<?xml version="1.0" encoding="UTF-8" standalone="no"?><!-- Generator: Gravit.io --><svg xmlns="http://www.w3.org/2000/svg" xmlns:xlink="http://www.w3.org/1999/xlink" style="isolation:isolate" viewBox="0 0 48 48" width="48pt" height="48pt"><linearGradient id="_lgradient_4" x1="0" y1="0.5" x2="0.9074880558539661" y2="0.9200778838291643" gradientTransform="matrix(44,0,0,44,2,2)" gradientUnits="userSpaceOnUse"><stop offset="0%" stop-opacity="1" style="stop-color:rgb(247,241,7)"/><stop offset="83.88839793817618%" stop-opacity="1" style="stop-color:rgb(255,187,36)"/></linearGradient><path d=" M 6 28 L 6 28 C 6 29.104 5.104 30 4 30 L 4 30 C 2.896 30 2 29.104 2 28 L 2 28 L 2 7 C 2 4.24 4.24 2 7 2 L 41 2 C 43.76 2 46 4.24 46 7 L 46 12 L 46 12 C 46 13.104 45.104 14 44 14 L 44 14 C 42.896 14 42 13.104 42 12 L 42 12 L 42 9 C 42 7.344 40.656 6 39 6 L 9 6 C 7.344 6 6 7.344 6 9 L 6 28 L 6 28 Z  M 42 20 L 42 20 C 42 18.896 42.896 18 44 18 L 44 18 C 45.104 18 46 18.896 46 20 L 46 20 L 46 42 C 46 44.208 44.208 46 42 46 L 6 46 C 3.792 46 2 44.208 2 42 L 2 36 L 2 36 C 2 34.896 2.896 34 4 34 L 4 34 C 5.104 34 6 34.896 6 36 L 6 36 L 6 39 C 6 40.656 7.344 42 9 42 L 39 42 C 40.656 42 42 40.656 42 39 L 42 20 L 42 20 Z  M 12 10 C 10.892 10 10 10.892 10 12 L 10 21 C 10 22.108 10.892 23 12 23 C 13.108 23 14 22.108 14 21 L 14 16.813 L 17 19.813 L 17 23 L 21 23 L 21 22 C 21 21.446 21.446 21 22 21 L 23 21 L 23 17 L 19.813 17 L 16.813 14 L 21 14 C 22.108 14 23 13.108 23 12 C 23 10.892 22.108 10 21 10 L 12 10 L 12 10 L 12 10 Z  M 27 10 C 25.892 10 25 10.892 25 12 C 25 13.108 25.892 14 27 14 L 31.188 14 L 28.188 17 L 25 17 L 25 21 L 26 21 C 26.554 21 27 21.446 27 22 L 27 23 L 31 23 L 31 19.813 L 34 16.813 L 34 21 C 34 22.108 34.892 23 36 23 C 37.108 23 38 22.108 38 21 L 38 12 C 38 10.892 37.108 10 36 10 L 27 10 L 27 10 L 27 10 Z  M 17 25 L 17 29 C 17 30.108 17.892 31 19 31 L 23 31 L 23 27 L 22 27 C 21.446 27 21 26.554 21 26 L 21 25 L 17 25 L 17 25 Z  M 27 25 L 27 26 C 27 26.554 26.554 27 26 27 L 25 27 L 25 31 L 28.188 31 L 31.188 34 L 27 34 C 25.892 34 25 34.892 25 36 C 25 37.108 25.892 38 27 38 L 36 38 C 37.107 38 38 37.108 38 36 L 38 27 C 38 25.892 37.107 25 36 25 C 34.891 25 34 25.892 34 27 L 34 31.188 L 31 28.188 L 31 25 L 27 25 L 27 25 L 27 25 Z " fill-rule="evenodd" fill="url(#_lgradient_4)"/></svg>
